X:1
T:Title
%%score { ( 1 4 ) | ( 2 3 ) }
L:1/8
M:4/4
K:F
V:1 treble nm="Grand Piano"
V:4 treble 
V:2 bass 
V:3 bass 
V:1
 z4 z2[Q:1/4=100] [DF]2 | [Fd]2 [Fd][E^c] [Fd] [Fd]2 [Ec] | [Fd]2 [Fd][_Ec] [DB]3 [_AB] | %3
 [B,GB]2 [B,GB][B,^FA] [_EGc] [EGB]2 [B,EG] | .[B,DF]2 [^CG][CG] [DF]3 [DF] | %5
 [Fd]2 [Fd][E^c] [Fd] [Fd]2 [Ec] | z B,dc B3 d | [Ec]2 [Ec][Ed] [Ec] [EB]2 [EG] | %8
[M:7/8] A2 B =B c3 |[M:1/4] F2 |[M:4/4] f2 ff [Fd]2 [_Ec][DB] | [Fd]2 [DB]4 [DF]2 | %12
 [DF]2 [^CG][CB] [DF]2 [CG][DB] | [_EA]6 F2 |[M:19/16] B-<BABc/-c/-c/-c/-c/-c-<cB | %15
 B-<BAB^c/-c/-c/-c/-c/-c-<cB | %16
[M:4/4] [Bf]2 [Bf][Bf] d2 B>B[Q:1/4=99][Q:1/4=97][Q:1/4=96][Q:1/4=94][Q:1/4=93][Q:1/4=91] | %17
[M:7/4] c2 B4 z2 z2 z4[Q:1/4=90][Q:1/4=88][Q:1/4=87][Q:1/4=85][Q:1/4=84][Q:1/4=82][Q:1/4=81][Q:1/4=79][Q:1/4=78][Q:1/4=76] | %18
[M:4/4] [GB]8 | [FB]8 |] %20
V:2
 z4 z2 [B,,B,]2 | [B,,F,]2 [B,,F,][B,,G,] [B,,F,] [B,,F,]2 [B,,G,] | %2
 [B,,F,]2 [F,B,][F,A,] [B,,B,]3 [B,,B,] | _E,2 E,E, E, E,2 E, | %4
 z F,[B,,E,][B,,E,] [B,,F,]3 [B,,B,] | [B,,F,]2 [B,,F,][B,,G,] [B,,F,] [B,,F,]2 [B,,G,] | %6
 .[B,,F,]2 [F,A,F][^F,A,_E] [G,B,D]3 [G,B,D] | [C,B,]2 [C,B,][C,B,] [C,G,] [C,G,]2 [C,C] | %8
[M:7/8][K:treble] [F,CF]2 [G,CE] [_A,DF] [=A,_EF]3 |[M:1/4] [A,C_E]2 | %10
[M:4/4][K:bass] [B,,B,DFB]2 [B,,B,DFB][B,,B,DFB] [B,,B,]2 [B,,F,][B,,F,] | %11
 [B,,B,]2 [B,,F,]4 [B,,B,]2 | [B,,B,]2 [B,,E,][B,,E,] [B,,F,]2 [B,,E,][B,,F,] | [C,F,]6 [F,A,_E]2 | %14
[M:19/16] [G,B,D]-<[G,B,D][^F,C_E][G,B,D][_A,B,D]/-[A,B,D]/-[A,B,D]/-[A,B,D]/-[A,B,D]/-[A,B,D]-<[A,B,D][A,B,D] | %15
 [G,B,_E]-<[G,B,E][^F,CE][G,B,E][F,B,=E]/-[F,B,E]/-[F,B,E]/-[F,B,E]/-[F,B,E]/-[F,B,E]-<[F,B,E][K:treble][=F,DF] | %16
[M:4/4] [F,DF]2 [F,DF][F,DF] [F,B,F]2 [F,DF]>[F,DF] |[M:7/4] [F,_EF]2 [B,DF]4 z2 z2 z4 | %18
[M:4/4][K:bass] [_E,_E]8 | [B,D]8 |] %20
V:3
 x8 | x8 | x8 | x8 | B,,2 z2 z4 | x8 | x8 | x8 |[M:7/8][K:treble] x7 |[M:1/4] x2 | %10
[M:4/4][K:bass] x8 | x8 | x8 | x8 |[M:19/16] x19/2 | x17/2[K:treble] x |[M:4/4] x8 |[M:7/4] x14 | %18
[M:4/4][K:bass] x8 | x8 |] %20
V:4
 x8 | x8 | x8 | x8 | x8 | x8 | [Fd]2 z2 z4 | x8 |[M:7/8] x7 |[M:1/4] x2 |[M:4/4] x8 | x8 | x8 | %13
 x8 |[M:19/16] x19/2 | x19/2 |[M:4/4] x8 |[M:7/4] x14 |[M:4/4] x8 | x8 |] %20

